remix/Map/pin-distance-line.svg

<svg viewBox="0 0 24 24" fill="currentColor" xmlns="http://www.w3.org/2000/svg"><path d="M9.97487 8.97487C11.3417 7.60804 11.3417 5.39196 9.97487 4.02513C8.60804 2.65829 6.39196 2.65829 5.02513 4.02513C3.65829 5.39196 3.65829 7.60804 5.02513 8.97487L7.5 11.4497L9.97487 8.97487ZM7.5 14.2782L3.61091 10.3891C1.46303 8.2412 1.46303 4.7588 3.61091 2.61091C5.7588 0.463029 9.2412 0.463029 11.3891 2.61091C13.537 4.7588 13.537 8.2412 11.3891 10.3891L7.5 14.2782ZM7.5 8C6.67157 8 6 7.32843 6 6.5C6 5.67157 6.67157 5 7.5 5C8.32843 5 9 5.67157 9 6.5C9 7.32843 8.32843 8 7.5 8ZM16.5 20.4497L18.9749 17.9749C20.3417 16.608 20.3417 14.392 18.9749 13.0251C17.608 11.6583 15.392 11.6583 14.0251 13.0251C12.6583 14.392 12.6583 16.608 14.0251 17.9749L16.5 20.4497ZM20.3891 19.3891L16.5 23.2782L12.6109 19.3891C10.463 17.2412 10.463 13.7588 12.6109 11.6109C14.7588 9.46303 18.2412 9.46303 20.3891 11.6109C22.537 13.7588 22.537 17.2412 20.3891 19.3891ZM16.5 17C15.6716 17 15 16.3284 15 15.5C15 14.6716 15.6716 14 16.5 14C17.3284 14 18 14.6716 18 15.5C18 16.3284 17.3284 17 16.5 17Z"/></svg>

<svg viewBox="0 0 24 24" xmlns="http://www.w3.org/2000/svg"><path fill="none" d="M0 0h24v24H0Z"/><path d="M9.97 8.97v0c1.36-1.37 1.36-3.59-.01-4.95 -1.37-1.37-3.59-1.37-4.95 0C3.64 5.38 3.64 7.6 5.009 8.96l2.47 2.47 2.47-2.48Zm-2.48 5.3L3.6 10.38h-.001c-2.15-2.15-2.15-5.64 0-7.78 2.14-2.15 5.63-2.15 7.77 0 2.14 2.14 2.14 5.62 0 7.77l-3.89 3.89Zm0-6.28v0c-.83 0-1.5-.68-1.5-1.5 0-.83.67-1.5 1.5-1.5v0c.82 0 1.5.67 1.5 1.5 0 .82-.68 1.5-1.5 1.5Zm9 12.45l2.47-2.48v0c1.36-1.37 1.36-3.59-.01-4.95 -1.37-1.37-3.59-1.37-4.95 0 -1.37 1.36-1.37 3.58-.001 4.94l2.47 2.47Zm3.89-1.06l-3.89 3.88 -3.89-3.89v0c-2.15-2.15-2.15-5.64 0-7.78 2.14-2.15 5.63-2.15 7.77 0 2.14 2.14 2.14 5.62 0 7.77Zm-3.89-2.39v0c-.83 0-1.5-.68-1.5-1.5 0-.83.67-1.5 1.5-1.5v0c.82 0 1.5.67 1.5 1.5 0 .82-.68 1.5-1.5 1.5Z"/></svg>
